icons/svg/flashlight-off.svg

﻿<?xml version="1.0" encoding="utf-8"?>
<!DOCTYPE svg PUBLIC "-//W3C//DTD SVG 1.1//EN" "http://www.w3.org/Graphics/SVG/1.1/DTD/svg11.dtd">
<svg xmlns="http://www.w3.org/2000/svg" xmlns:xlink="http://www.w3.org/1999/xlink" version="1.1" baseProfile="full" width="24" height="24" viewBox="0 0 24.00 24.00" enable-background="new 0 0 24.00 24.00" xml:space="preserve">
	<path fill="#000000" fill-opacity="1" stroke-width="0.2" stroke-linejoin="round" d="M 2,5.26848L 3.27711,4L 20,20.7229L 18.7315,22L 15,18.2685L 15,22L 9,22L 9,12.2685L 2,5.26848 Z M 18,5.00001L 15,10L 11.8227,10L 6.82269,5.00001L 18,5.00001 Z M 18,4.00001L 6,4.00001L 6,2.00001L 18,2.00001L 18,4.00001 Z M 15,11L 15,13.1773L 12.8227,11L 15,11 Z "/>
</svg>

<svg xmlns="http://www.w3.org/2000/svg" version="1.1" baseProfile="full" width="24" height="24" viewBox="0 0 24.00 24.00" xml:space="preserve"><path fill="#000" fill-opacity="1" stroke-width=".2" stroke-linejoin="round" d="M2 5.268L3.277 4 20 20.723 18.732 22 15 18.268V22H9v-9.732l-7-7zM18 5l-3 5h-3.177l-5-5H18zm0-1H6V2h12v2zm-3 7v2.177L12.823 11H15z"/></svg>
